img/AD.svg

<?xml version="1.0" encoding="UTF-8" standalone="no"?>

<!-- http://code.google.com/p/vector-playing-cards/ -->

<svg
   xmlns:dc="http://purl.org/dc/elements/1.1/"
   xmlns:cc="http://creativecommons.org/ns#"
   xmlns:rdf="http://www.w3.org/1999/02/22-rdf-syntax-ns#"
   xmlns:svg="http://www.w3.org/2000/svg"
   xmlns="http://www.w3.org/2000/svg"
   xmlns:xlink="http://www.w3.org/1999/xlink"
   xmlns:sodipodi="http://sodipodi.sourceforge.net/DTD/sodipodi-0.dtd"
   xmlns:inkscape="http://www.inkscape.org/namespaces/inkscape"
   width="167.0869141pt"
   height="242.6669922pt"
   viewBox="0 0 167.0869141 242.6669922"
   xml:space="preserve"
   id="svg2"
   version="1.1"
   inkscape:version="0.48.0 r9654"
   sodipodi:docname="ace_of_diamonds.svg"
   inkscape:export-filename="/home/byron/art/cards/final/PNGs/ace_of_diamonds.png"
   inkscape:export-xdpi="215.44792"
   inkscape:export-ydpi="215.44792"><metadata
   id="metadata43"><rdf:RDF><cc:Work
       rdf:about=""><dc:format>image/svg+xml</dc:format><dc:type
         rdf:resource="http://purl.org/dc/dcmitype/StillImage" /><dc:title></dc:title></cc:Work></rdf:RDF></metadata><defs
   id="defs41"><radialGradient
     inkscape:collect="always"
     xlink:href="#linearGradient3773"
     id="radialGradient3781"
     cx="-0.15782039"
     cy="-8.8345356"
     fx="-0.15782039"
     fy="-8.8345356"
     r="7.9997029"
     gradientTransform="matrix(-1.5842693,-0.02349808,0.03071979,-2.4775745,-0.24856378,-26.713507)"
     gradientUnits="userSpaceOnUse" /><linearGradient
     id="linearGradient3773"><stop
       style="stop-color:#000000;stop-opacity:1;"
       offset="0"
       id="stop3775" /><stop
       style="stop-color:#000000;stop-opacity:0.64885497;"
       offset="1"
       id="stop3777" /></linearGradient><radialGradient
     inkscape:collect="always"
     xlink:href="#linearGradient3773"
     id="radialGradient3957"
     cx="-0.15782039"
     cy="-8.8345356"
     fx="-0.15782039"
     fy="-8.8345356"
     r="7.9997029"
     gradientTransform="matrix(-1.5842693,-0.02349808,0.03071979,-2.4775745,-0.24856378,-26.713507)"
     gradientUnits="userSpaceOnUse" /><linearGradient
     id="linearGradient3959"><stop
       style="stop-color:#000000;stop-opacity:1;"
       offset="0"
       id="stop3961" /><stop
       style="stop-color:#000000;stop-opacity:0.64885497;"
       offset="1"
       id="stop3963" /></linearGradient><radialGradient
     r="81.902771"
     fy="509.47577"
     fx="168.02475"
     cy="509.47577"
     cx="168.02475"
     gradientTransform="matrix(1.2565605,-0.77740644,0.33663816,0.5361257,-221.20213,359.24256)"
     gradientUnits="userSpaceOnUse"
     id="radialGradient3975"
     xlink:href="#linearGradient3784-4"
     inkscape:collect="always" /><linearGradient
     id="linearGradient3784-4"><stop
       style="stop-color:#ffffff;stop-opacity:0.4351145;"
       offset="0"
       id="stop3786-8" /><stop
       style="stop-color:#000000;stop-opacity:0;"
       offset="1"
       id="stop3788-6" /></linearGradient><radialGradient
     inkscape:collect="always"
     xlink:href="#linearGradient3784-4-5"
     id="radialGradient3929"
     gradientUnits="userSpaceOnUse"
     gradientTransform="matrix(1.2565605,-0.77740644,0.33663816,0.5361257,-221.20213,359.24256)"
     cx="168.02475"
     cy="509.47577"
     fx="168.02475"
     fy="509.47577"
     r="81.902771" /><linearGradient
     id="linearGradient3784-4-5"><stop
       style="stop-color:#ffffff;stop-opacity:0.48854962;"
       offset="0"
       id="stop3786-8-0" /><stop
       style="stop-color:#000000;stop-opacity:0;"
       offset="1"
       id="stop3788-6-3" /></linearGradient><radialGradient
     inkscape:collect="always"
     xlink:href="#linearGradient3784-4-1"
     id="radialGradient3927"
     gradientUnits="userSpaceOnUse"
     gradientTransform="matrix(1.2565605,-0.77740644,0.33663816,0.5361257,-221.20213,359.24256)"
     cx="168.02475"
     cy="509.47577"
     fx="168.02475"
     fy="509.47577"
     r="81.902771" /><linearGradient
     id="linearGradient3784-4-1"><stop
       style="stop-color:#ffffff;stop-opacity:0.23664123;"
       offset="0"
       id="stop3786-8-03" /><stop
       style="stop-color:#000000;stop-opacity:0;"
       offset="1"
       id="stop3788-6-6" /></linearGradient><linearGradient
     id="linearGradient3768"><stop
       style="stop-color:#df0000;stop-opacity:1;"
       offset="0"
       id="stop3770" /><stop
       style="stop-color:#df0000;stop-opacity:0.67175573;"
       offset="1"
       id="stop3772" /></linearGradient><linearGradient
     id="linearGradient3784-4-6"><stop
       style="stop-color:#ffffff;stop-opacity:0.31297711;"
       offset="0"
       id="stop3786-8-8" /><stop
       style="stop-color:#000000;stop-opacity:0;"
       offset="1"
       id="stop3788-6-8" /></linearGradient><radialGradient
     r="81.902771"
     fy="492.63205"
     fx="159.35434"
     cy="492.63205"
     cx="159.35434"
     gradientTransform="matrix(1.0894779,-0.71513803,0.44645273,0.65626582,-244.93331,290.9185)"
     gradientUnits="userSpaceOnUse"
     id="radialGradient4013-8"
     xlink:href="#linearGradient3784-4-2"
     inkscape:collect="always" /><linearGradient
     id="linearGradient3784-4-2"><stop
       style="stop-color:#ffffff;stop-opacity:0.29007635;"
       offset="0"
       id="stop3786-8-1" /><stop
       style="stop-color:#000000;stop-opacity:0;"
       offset="1"
       id="stop3788-6-5" /></linearGradient><linearGradient
     id="linearGradient2984"><stop
       style="stop-color:#df0000;stop-opacity:1;"
       offset="0"
       id="stop2986" /><stop
       style="stop-color:#df0000;stop-opacity:0.64122134;"
       offset="1"
       id="stop2988" /></linearGradient><linearGradient
     id="linearGradient3784-4-4"><stop
       style="stop-color:#ffffff;stop-opacity:0.4351145;"
       offset="0"
       id="stop3786-8-8-2" /><stop
       style="stop-color:#000000;stop-opacity:0;"
       offset="1"
       id="stop3788-6-1" /></linearGradient><filter
     color-interpolation-filters="sRGB"
     inkscape:collect="always"
     id="filter3834-6-0"
     x="-0.13934441"
     width="1.2786888"
     y="-0.16242018"
     height="1.3248404"><feGaussianBlur
       inkscape:collect="always"
       stdDeviation="9.5105772"
       id="feGaussianBlur3836-6-6" /></filter><radialGradient
     r="81.902771"
     fy="511.22299"
     fx="171.48665"
     cy="511.22299"
     cx="171.48665"
     gradientTransform="matrix(1.1529891,-0.67391547,0.39482025,0.67549043,-233.63262,270.40076)"
     gradientUnits="userSpaceOnUse"
     id="radialGradient3100"
     xlink:href="#linearGradient3784-4-4"
     inkscape:collect="always" /><radialGradient
     inkscape:collect="always"
     xlink:href="#linearGradient2984"
     id="radialGradient3137"
     gradientUnits="userSpaceOnUse"
     gradientTransform="matrix(-1.1224159,0.00551393,-0.00908973,-1.8503101,-0.0293938,-10.227695)"
     cx="1.6632675e-13"
     cy="-3.2337365"
     fx="1.6632675e-13"
     fy="-3.2337365"
     r="8" /></defs><sodipodi:namedview
   pagecolor="#ffffff"
   bordercolor="#666666"
   borderopacity="1"
   objecttolerance="10"
   gridtolerance="10"
   guidetolerance="10"
   inkscape:pageopacity="0"
   inkscape:pageshadow="2"
   inkscape:window-width="1680"
   inkscape:window-height="977"
   id="namedview39"
   showgrid="false"
   inkscape:zoom="1.7208768"
   inkscape:cx="72.124594"
   inkscape:cy="147.27218"
   inkscape:window-x="0"
   inkscape:window-y="25"
   inkscape:window-maximized="1"
   inkscape:current-layer="svg2" />
	<g
   id="Layer_x0020_1"
   style="fill-rule:nonzero;clip-rule:nonzero;stroke:#000000;stroke-miterlimit:4;">
		<path
   style="fill:#FFFFFF;stroke-width:0.5;"
   d="M166.8369141,235.5478516c0,3.7773438-3.0869141,6.8691406-6.8710938,6.8691406H7.1108398c-3.7749023,0-6.8608398-3.0917969-6.8608398-6.8691406V7.1201172C0.25,3.3427734,3.3359375,0.25,7.1108398,0.25h152.8549805    c3.7841797,0,6.8710938,3.0927734,6.8710938,6.8701172v228.4277344z"
   id="path5" />
		<g
   style="stroke:none;"
   id="g7">
			<g
   id="g9">
				
			</g>
			
		</g>
		<g
   id="g15">
			
		</g>
		<g
   id="g19">
			
		</g>
		<g
   style="stroke:none;"
   id="g23">
			<g
   id="g25">
				
			</g>
			
		</g>
		<g
   style="stroke:none;"
   id="g31">
			<g
   id="g33">
				
			</g>
			
		</g>
	</g>



<text
   xml:space="preserve"
   style="font-size:32px;font-style:normal;font-weight:normal;line-height:125%;letter-spacing:0px;word-spacing:0px;fill:#df0000;fill-opacity:1;stroke:none;font-family:Bitstream Vera Sans"
   x="6.2456665"
   y="28.013288"
   id="text3788"
   sodipodi:linespacing="125%"><tspan
     sodipodi:role="line"
     id="tspan3790"
     x="6.2456665"
     y="28.013288"
     style="font-style:normal;font-variant:normal;font-weight:normal;font-stretch:normal;font-family:Arial;-inkscape-font-specification:Arial;fill:#df0000;fill-opacity:1">A</tspan></text>


<text
   xml:space="preserve"
   style="font-size:32px;font-style:normal;font-weight:normal;line-height:125%;letter-spacing:0px;word-spacing:0px;fill:#df0000;fill-opacity:1;stroke:none;font-family:Bitstream Vera Sans"
   x="-161.08786"
   y="-213.51517"
   id="text3788-4"
   sodipodi:linespacing="125%"
   transform="scale(-1,-1)"><tspan
     sodipodi:role="line"
     id="tspan3790-3"
     x="-161.08786"
     y="-213.51517"
     style="font-style:normal;font-variant:normal;font-weight:normal;font-stretch:normal;fill:#df0000;fill-opacity:1;font-family:Arial;-inkscape-font-specification:Arial">A</tspan></text>

<g
   transform="matrix(0.17001436,0,0,0.17001436,19.517107,29.794341)"
   id="g3011"><g
     id="layer1-2"
     transform="matrix(35.005102,0,0,35.005102,369.18369,512.27289)"><path
       sodipodi:nodetypes="ccccccccc"
       d="M 3.2433274,-4.7253274 C 1.1263274,-7.5893274 0,-10.5 0,-10.5 c 0,0 -1.1263274,2.9106726 -3.2433274,5.7746726 C -5.3613274,-1.8623274 -8,0 -8,0 -8,0 -5.3613274,1.8613274 -3.2433274,4.7263274 -1.1263274,7.5893274 0,10.5 0,10.5 0,10.5 1.1263274,7.5893274 3.2433274,4.7263274 5.3613274,1.8613274 8,0 8,0 8,0 5.3613274,-1.8623274 3.2433274,-4.7253274 z"
       id="dl"
       inkscape:connector-curvature="0"
       style="fill:url(#radialGradient3137);fill-opacity:1" /></g><path
     transform="matrix(-1.4652123,0.23694327,-0.24538129,-1.5173914,660.30624,1148.701)"
     sodipodi:nodetypes="cscsc"
     inkscape:connector-curvature="0"
     id="path3762-6"
     d="m 117.3013,604.26609 c 0,0 -8.06755,-94.94997 22.85715,-122.85714 34.76052,-31.36871 140,-11.42857 140,-11.42857 0,0 -71.5404,24.83762 -100,48.57143 -27.21033,22.69199 -62.85715,85.71428 -62.85715,85.71428 z"
     style="fill:url(#radialGradient3100);fill-opacity:1;stroke:none;filter:url(#filter3834-6-0)" /></g><g
   transform="matrix(1.4769065,0,0,1.4769065,16.968095,44.236162)"
   id="layer1-2-6"><path
     style="fill:#df0000"
     inkscape:connector-curvature="0"
     id="dl-6"
     d="M 3.2433274,-4.7253274 C 1.1263274,-7.5893274 0,-10.5 0,-10.5 c 0,0 -1.1263274,2.9106726 -3.2433274,5.7746726 C -5.3613274,-1.8623274 -8,0 -8,0 -8,0 -5.3613274,1.8613274 -3.2433274,4.7263274 -1.1263274,7.5893274 0,10.5 0,10.5 0,10.5 1.1263274,7.5893274 3.2433274,4.7263274 5.3613274,1.8613274 8,0 8,0 8,0 5.3613274,-1.8623274 3.2433274,-4.7253274 z"
     sodipodi:nodetypes="ccccccccc" /></g><g
   transform="matrix(1.4769065,0,0,1.4769065,150.62089,198.50346)"
   id="layer1-2-6-4"><path
     style="fill:#df0000"
     inkscape:connector-curvature="0"
     id="dl-6-9"
     d="M 3.2433274,-4.7253274 C 1.1263274,-7.5893274 0,-10.5 0,-10.5 c 0,0 -1.1263274,2.9106726 -3.2433274,5.7746726 C -5.3613274,-1.8623274 -8,0 -8,0 -8,0 -5.3613274,1.8613274 -3.2433274,4.7263274 -1.1263274,7.5893274 0,10.5 0,10.5 0,10.5 1.1263274,7.5893274 3.2433274,4.7263274 5.3613274,1.8613274 8,0 8,0 8,0 5.3613274,-1.8623274 3.2433274,-4.7253274 z"
     sodipodi:nodetypes="ccccccccc" /></g></svg>

<?xml version="1.0" encoding="UTF-8"?>
<!-- http://code.google.com/p/vector-playing-cards/ -->
<svg width="167.09pt" height="242.67pt" version="1.1" viewBox="0 0 167.09 242.67" xml:space="preserve" xmlns="http://www.w3.org/2000/svg" xmlns:cc="http://creativecommons.org/ns#" xmlns:dc="http://purl.org/dc/elements/1.1/" xmlns:rdf="http://www.w3.org/1999/02/22-rdf-syntax-ns#" xmlns:xlink="http://www.w3.org/1999/xlink"><metadata><rdf:RDF><cc:Work rdf:about=""><dc:format>image/svg+xml</dc:format><dc:type rdf:resource="http://purl.org/dc/dcmitype/StillImage"/><dc:title/></cc:Work></rdf:RDF></metadata><defs><filter id="c" x="-.13934" y="-.16242" width="1.2787" height="1.3248" color-interpolation-filters="sRGB"><feGaussianBlur stdDeviation="9.5105772"/></filter><radialGradient id="b" cx="171.49" cy="511.22" r="81.903" gradientTransform="matrix(1.153 -.67392 .39482 .67549 -233.63 270.4)" gradientUnits="userSpaceOnUse"><stop stop-color="#fff" stop-opacity=".43511" offset="0"/><stop stop-opacity="0" offset="1"/></radialGradient><radialGradient id="a" cx="1.6633e-13" cy="-3.2337" r="8" gradientTransform="matrix(-1.1224 .0055139 -.0090897 -1.8503 -.029394 -10.228)" gradientUnits="userSpaceOnUse"><stop stop-color="#df0000" offset="0"/><stop stop-color="#df0000" stop-opacity=".64122" offset="1"/></radialGradient></defs>
	<g stroke="#000">
		<path d="m166.84 235.55c0 3.7773-3.0869 6.8691-6.8711 6.8691h-152.85c-3.7749 0-6.8608-3.0918-6.8608-6.8691v-228.43c0-3.7773 3.0859-6.8701 6.8608-6.8701h152.85c3.7842 0 6.8711 3.0928 6.8711 6.8701v228.43z" fill="#fff" stroke-width=".5"/>
		<g stroke="none">
		</g>
		<g stroke="none">
		</g>
		<g stroke="none">
		</g>
	</g>
<text x="6.2456665" y="28.013288" fill="#df0000" font-family="Bitstream Vera Sans" font-size="32px" letter-spacing="0px" word-spacing="0px" style="line-height:125%" xml:space="preserve"><tspan x="6.2456665" y="28.013288" fill="#df0000" font-family="Arial">A</tspan></text>
<text transform="scale(-1)" x="-161.08786" y="-213.51517" fill="#df0000" font-family="Bitstream Vera Sans" font-size="32px" letter-spacing="0px" word-spacing="0px" style="line-height:125%" xml:space="preserve"><tspan x="-161.08786" y="-213.51517" fill="#df0000" font-family="Arial">A</tspan></text>
<g transform="matrix(.17001 0 0 .17001 19.517 29.794)"><g transform="matrix(35.005 0 0 35.005 369.18 512.27)"><path d="m3.2433-4.7253c-2.117-2.864-3.2433-5.7747-3.2433-5.7747s-1.1263 2.9107-3.2433 5.7747c-2.118 2.863-4.7567 4.7253-4.7567 4.7253s2.6387 1.8613 4.7567 4.7263c2.117 2.863 3.2433 5.7737 3.2433 5.7737s1.1263-2.9107 3.2433-5.7737c2.118-2.865 4.7567-4.7263 4.7567-4.7263s-2.6387-1.8623-4.7567-4.7253z" fill="url(#a)"/></g><path transform="matrix(-1.4652 .23694 -.24538 -1.5174 660.31 1148.7)" d="m117.3 604.27s-8.0676-94.95 22.857-122.86c34.761-31.369 140-11.429 140-11.429s-71.54 24.838-100 48.571c-27.21 22.692-62.857 85.714-62.857 85.714z" fill="url(#b)" filter="url(#c)"/></g><g transform="matrix(1.4769 0 0 1.4769 16.968 44.236)"><path d="m3.2433-4.7253c-2.117-2.864-3.2433-5.7747-3.2433-5.7747s-1.1263 2.9107-3.2433 5.7747c-2.118 2.863-4.7567 4.7253-4.7567 4.7253s2.6387 1.8613 4.7567 4.7263c2.117 2.863 3.2433 5.7737 3.2433 5.7737s1.1263-2.9107 3.2433-5.7737c2.118-2.865 4.7567-4.7263 4.7567-4.7263s-2.6387-1.8623-4.7567-4.7253z" fill="#df0000"/></g><g transform="matrix(1.4769 0 0 1.4769 150.62 198.5)"><path d="m3.2433-4.7253c-2.117-2.864-3.2433-5.7747-3.2433-5.7747s-1.1263 2.9107-3.2433 5.7747c-2.118 2.863-4.7567 4.7253-4.7567 4.7253s2.6387 1.8613 4.7567 4.7263c2.117 2.863 3.2433 5.7737 3.2433 5.7737s1.1263-2.9107 3.2433-5.7737c2.118-2.865 4.7567-4.7263 4.7567-4.7263s-2.6387-1.8623-4.7567-4.7253z" fill="#df0000"/></g></svg>
